X: 14349
T: Gallowglass, The
R: jig
M: 6/8
K: Edorian
F|:GFE BFA|GEE E2F|GFE Bcd|AFD DEF|
GFE BFA|GFE B2A|GFE DEF|1 GEE E2F:|2 GEE E2B||
|:e3 B2A|GB2 E2F|GFE Bcd|AFD D2B|
[1 e3 B2A|GFE B2A|GFE DEF|GEE E2B:|
[2 eBd cAF|BGE FDB,|EFG GFA|GEE E2F||

